icons/hospital_symbol.svg

<svg width="48" height="48" viewBox="0 0 48 48" fill="none" xmlns="http://www.w3.org/2000/svg">
<path fill-rule="evenodd" clip-rule="evenodd" d="M24 42C14.0589 42 6 33.9411 6 24C6 14.0589 14.0589 6 24 6C33.9411 6 42 14.0589 42 24C42 33.9411 33.9411 42 24 42ZM4 24C4 12.9543 12.9543 4 24 4C35.0457 4 44 12.9543 44 24C44 35.0457 35.0457 44 24 44C12.9543 44 4 35.0457 4 24ZM19.9915 33.0479V26.0478L27.9915 26.0478V33.0479H31.9915V15.0479H27.9915V22.0478L19.9915 22.0478V15.0479H15.9915V33.0479H19.9915Z" fill="black"/>
</svg>

<svg
  xmlns="http://www.w3.org/2000/svg"
  width="24"
  height="24"
  viewBox="0 0 24 24"
  fill="none"
  stroke="currentColor"
  stroke-width="2"
  stroke-linecap="round"
  stroke-linejoin="round"
>
  <path
    fill-rule="evenodd"
    d="M24 42c-9.941 0-18-8.059-18-18S14.059 6 24 6s18 8.059 18 18-8.059 18-18 18M4 24C4 12.954 12.954 4 24 4s20 8.954 20 20-8.954 20-20 20S4 35.046 4 24m15.991 9.048v-7h8v7h4v-18h-4v7h-8v-7h-4v18z"
    clip-rule="evenodd"
  />
</svg>
